**kern	**silbe	**kern	**silbe	**kern	**silbe	**harmony	**chordsym	**phrase	**timestamp	**leadinstrument
*ICvox	*	*ICvox	*	*ICvox	*	*M4/4	*M4/4	*	*	*
*F:	*	*F:	*	*F:	*	*F:	*F:	*	*	*
*M4/4	*	*M4/4	*	*M4/4	*	*	*	*	*	*
*clefG2	*	*clefG2	*	*clefG2	*	*	*	*	*	*
r;	.	r;	.	r;	.	1r;	r	.	0	r
=1	=1	=1	=1	=1	=1	=1	=1	=1	=1	=1
*	*	*	*	*	*	*>A_intro	*>A_intro	*>A_intro	*>A_intro	*>A_intro
1r	.	1r	.	1r	.	1N	N	newline	0.395	drums
=2	=2	=2	=2	=2	=2	=2	=2	=2	=2	=2
1r	.	1r	.	1r	.	1FM	F:maj (F A C)	.	.	drums
=3	=3	=3	=3	=3	=3	=3	=3	=3	=3	=3
1r	.	1r	.	1r	.	4.FM	F:maj (F A C)	newline	5.275	keyboard
.	.	.	.	.	.	2CM	C:maj (F C E G)	.	.	keyboard
.	.	.	.	.	.	8B-M	B-:maj (F B- D)	.	.	keyboard
=4	=4	=4	=4	=4	=4	=4	=4	=4	=4	=4
1r	.	1r	.	1r	.	2.B-M	B-:maj (F B- D)	.	.	keyboard
.	.	.	.	.	.	4CM	C:maj (F C E G)	.	.	keyboard
=5	=5	=5	=5	=5	=5	=5	=5	=5	=5	=5
1r	.	1r	.	1r	.	4.FM	F:maj (F A C)	.	.	keyboard
.	.	.	.	.	.	2CM	C:maj (F C E G)	.	.	keyboard
.	.	.	.	.	.	8B-M	B-:maj (F B- D)	.	.	keyboard
=6	=6	=6	=6	=6	=6	=6	=6	=6	=6	=6
1r	.	1r	.	1r	.	1B-M	B-:maj (F B- D)	.	.	keyboard
=7	=7	=7	=7	=7	=7	=7	=7	=7	=7	=7
*	*	*	*	*	*	*>B_verse	*>B_verse	*>B_verse	*>B_verse	*>B_verse
8cq	_	.	.	.	.	.	.	.	.	.
8d	_	1r	.	1r	.	4.F	F:Maj (F A C)	newline	15.14	voice
8f	know	.	.	.	.	.	.	.	.	.
8f	this	.	.	.	.	.	.	.	.	.
8d	pain	.	.	.	.	2C	C:Maj (F C E G)	.	.	voice
8c	...	.	.	.	.	.	.	.	.	.
8r	.	.	.	.	.	.	.	.	.	.
4r	.	.	.	.	.	.	.	.	.	.
.	.	.	.	.	.	8B-M	B-:maj (F B- D)	.	.	voice
=8	=8	=8	=8	=8	=8	=8	=8	=8	=8	=8
2r	.	2r	.	1r	.	2.B-M	B-:maj (F B- D)	.	.	voice
8r	.	8r	.	.	.	.	.	.	.	.
8cc	why	8f a	why	.	.	.	.	.	.	.
8cc	do	8f a	do	.	.	4C	C:maj (F C E G)	.	.	voice
8cc	you	8f a	you	.	.	.	.	.	.	.
=9	=9	=9	=9	=9	=9	=9	=9	=9	=9	=9
8cc	lock	8f a	lock	1r	.	8%5Dm	D:min (D F A)	.	.	voice
8a	your-	8d f	your-	.	.	.	.	.	.	.
8a	-self	8d f	-self	.	.	.	.	.	.	.
8a	up	8d f	up	.	.	.	.	.	.	.
8f	in	8A c	in	.	.	.	.	.	.	.
4f	these	4A c	these	.	.	4FM	F:maj (A F C)	.	.	voice
[8f	chains	[8B- [d	chains	.	.	8B-M	B-:maj (B- D F)	.	.	voice
=10	=10	=10	=10	=10	=10	=10	=10	=10	=10	=10
8f]	_	8B-] d]	_	1r	.	2B-M	B-:maj (B- D F)	.	.	voice
8r	.	8r	.	.	.	.	.	.	.	.
4r	.	4r	.	.	.	.	.	.	.	.
2r	.	2r	.	.	.	2CM	C:sus4 (C F G)	.	.	voice
=11	=11	=11	=11	=11	=11	=11	=11	=11	=11	=11
8cq	_	.	.	.	.	.	.	.	.	.
8d	_	1r	.	1r	.	4.FM	F:maj (F A C)	newline	24.996	voice
8f	one	.	.	.	.	.	.	.	.	.
8f	can	.	.	.	.	.	.	.	.	.
8cq	_	.	.	.	.	.	.	.	.	.
[8d	change	.	.	.	.	2C	C:Maj (F C E G)	.	.	voice
16d]	_	.	.	.	.	.	.	.	.	.
16f	your	.	.	.	.	.	.	.	.	.
8f	life	.	.	.	.	.	.	.	.	.
8d	ex	.	.	.	.	.	.	.	.	.
8cq	_	.	.	.	.	.	.	.	.	.
[8d	cept	.	.	.	.	8B-M	B-:maj (F B- D)	.	.	voice
=12	=12	=12	=12	=12	=12	=12	=12	=12	=12	=12
16d]	_	1r	.	1r	.	2.B-M	B-:maj (F B- D)	.	.	voice
16c	for	.	.	.	.	.	.	.	.	.
8c	you.	.	.	.	.	.	.	.	.	.
4r	.	.	.	.	.	.	.	.	.	.
4r	.	.	.	.	.	.	.	.	.	.
8r	.	.	.	.	.	4CM	C:maj (F C E G)	.	.	voice
8c	Don't	.	.	.	.	.	.	.	.	.
=13	=13	=13	=13	=13	=13	=13	=13	=13	=13	=13
8a	e-	1r	.	1r	.	4.FM	F:maj (F A C)	.	.	voice
8a	-ver	.	.	.	.	.	.	.	.	.
8a	let	.	.	.	.	.	.	.	.	.
8a	a-	.	.	.	.	2C	C:Maj (F C E G)	.	.	voice
8a	-ny-	.	.	.	.	.	.	.	.	.
8a	-one	.	.	.	.	.	.	.	.	.
8a	step	.	.	.	.	.	.	.	.	.
8a	all	.	.	.	.	8B-M	B-:maj (F B- D)	.	.	voice
=14	=14	=14	=14	=14	=14	=14	=14	=14	=14	=14
8cc	o-	1r	.	1r	.	2.B-M	B-:maj (F B- D)	.	.	voice
16f	-ver	.	.	.	.	.	.	.	.	.
[16f	you	.	.	.	.	.	.	.	.	.
8f]	_	.	.	.	.	.	.	.	.	.
8cq	_	.	.	.	.	.	.	.	.	.
8d	_	.	.	.	.	.	.	.	.	.
4r	.	.	.	.	.	.	.	.	.	.
8r	.	.	.	.	.	4CM	C:maj (F C E G)	.	.	voice
8c	Just	.	.	.	.	.	.	.	.	.
=15	=15	=15	=15	=15	=15	=15	=15	=15	=15	=15
8a	o-	1r	.	1r	.	4.FM	F:maj (F A C)	newline	34.825	voice
8c	-pen	.	.	.	.	.	.	.	.	.
8c	your	.	.	.	.	.	.	.	.	.
8g	heart	.	.	.	.	2CM	C:maj (F C E G)	.	.	voice
8r	.	.	.	.	.	.	.	.	.	.
8g	and	.	.	.	.	.	.	.	.	.
8a	your	.	.	.	.	.	.	.	.	.
8fq	_	.	.	.	.	.	.	.	.	.
8g	mind	.	.	.	.	8B-M	B-:maj (F B- D)	.	.	voice
=16	=16	=16	=16	=16	=16	=16	=16	=16	=16	=16
*	*	*clefF4	*	*	*	*	*	*	*	*
8f	_	1r	.	1r	.	2.B-M	B-:maj (F B- D)	.	.	voice
8d	_	.	.	.	.	.	.	.	.	.
4r	.	.	.	.	.	.	.	.	.	.
8r	.	.	.	.	.	.	.	.	.	.
[8f	Mmm	.	.	.	.	.	.	.	.	.
16f]	_	.	.	.	.	4CM	C:maj (F C E G)	.	.	voice
8c	_	.	.	.	.	.	.	.	.	.
16r	.	.	.	.	.	.	.	.	.	.
=17	=17	=17	=17	=17	=17	=17	=17	=17	=17	=17
*clefF4	*	*	*	*	*	*	*	*	*	*
8r	.	8r	.	1r	.	8%5Dm	D:min (D F A)	.	.	voice
16d f	Is	16A	Is	.	.	.	.	.	.	.
16d f	it	16A	it	.	.	.	.	.	.	.
16f a	real-	16c	real-	.	.	.	.	.	.	.
16d f	-ly	16A	-ly	.	.	.	.	.	.	.
8f a	fair	8c	fair	.	.	.	.	.	.	.
8cq 8fq	_	.	.	.	.	.	.	.	.	.
8d g	_	8B-	_	.	.	.	.	.	.	.
8c f	_	8G	_	.	.	4FM	F:maj (A F C)	.	.	voice
8A	to	8r	.	.	.	.	.	.	.	.
8f b-	feel	8D	feel	.	.	8B-M	B-:maj (B- D F)	.	.	voice
=18	=18	=18	=18	=18	=18	=18	=18	=18	=18	=18
2r	.	2r	.	1r	.	1B-M	B-:maj (B- D F)	.	.	voice
8d g	this	8B-	this	.	.	.	.	.	.	.
8c f	way	8A	way	.	.	.	.	.	.	.
8A d	in	8F	in	.	.	.	.	.	.	.
8Aq	_	8Cq	_	.	.	.	.	.	.	.
8B- d	side	8D	side	.	.	.	.	.	.	.
=19	=19	=19	=19	=19	=19	=19	=19	=19	=19	=19
4c e	_	4G	_	1r	.	1CM	C:maj (C E G)	.	.	voice
4r	.	4r	.	.	.	.	.	.	.	.
8r	.	2r	.	.	.	.	.	.	.	.
8g	Oh	.	.	.	.	.	.	.	.	.
8f	_	.	.	.	.	.	.	.	.	.
8d	_	.	.	.	.	.	.	.	.	.
=20	=20	=20	=20	=20	=20	=20	=20	=20	=20	=20
*clefG2	*	*	*	*	*	*>C_chorus	*>C_chorus	*>C_chorus	*>C_chorus	*>C_chorus
8r	.	8r	.	1r	.	4.FM	F:maj (F A C)	newline	47.002	voice
8d	Some	8A	Some	.	.	.	.	.	.	.
8f	day	8c	day	.	.	.	.	.	.	.
8d	some-	8B-	some-	.	.	8%5B-M	B-:maj (F B- D)	.	.	voice
16f	-bo-	16c	-bo-	.	.	.	.	.	.	.
16f	-dy's	16c	-dy's	.	.	.	.	.	.	.
16d	gon-	16B-	gon-	.	.	.	.	.	.	.
16d	-na	16B-	-na	.	.	.	.	.	.	.
16f	make	16c	make	.	.	.	.	.	.	.
16f	you	16c	you	.	.	.	.	.	.	.
16f	wan-	16c	wan-	.	.	.	.	.	.	.
16d	-na	16A	-na	.	.	.	.	.	.	.
=21	=21	=21	=21	=21	=21	=21	=21	=21	=21	=21
16f	turn	16c	turn	1r	.	4.CM	C:maj (F C E G)	.	.	voice
16f	a-	16c	a-	.	.	.	.	.	.	.
16f	-round	16c	-round	.	.	.	.	.	.	.
16d	and	16A	and	.	.	.	.	.	.	.
8f	say	8c	say	.	.	.	.	.	.	.
16d	good-	16A	good-	.	.	8%5FM	F:maj (F A C)	.	.	voice
[16a [cc	-bye	[16f	-bye	.	.	.	.	.	.	.
8a] cc]	_	8f]	_	.	.	.	.	.	.	.
8gq 8b-q	_	8eq	_	.	.	.	.	.	.	.
8a cc	_	8f	_	.	.	.	.	.	.	.
4r	.	4r	.	.	.	.	.	.	.	.
=22	=22	=22	=22	=22	=22	=22	=22	=22	=22	=22
*	*	*clefG2	*	*	*	*	*	*	*	*
8r	.	8r	.	1r	.	4.FM	F:maj (F A C)	.	.	voice
8cc ff	'Till	8a	'Till	.	.	.	.	.	.	.
8cc ff	then,	8a	then,	.	.	.	.	.	.	.
8f a	ba-	16c	ba-	.	.	8%5B-M	B-:maj (F B- D)	.	.	voice
.	.	16d	_	.	.	.	.	.	.	.
*	*	*clefF4	*	*	*	*	*	*	*	*
8f b-	-by,	8d	-by,	.	.	.	.	.	.	.
16c	are	16F	are	.	.	.	.	.	.	.
16c	you	16G	you	.	.	.	.	.	.	.
16c	gon-	16A	gon-	.	.	.	.	.	.	.
16c	-na	16A	-na	.	.	.	.	.	.	.
16c	let	16A	let	.	.	.	.	.	.	.
16A	'em	16F	'em	.	.	.	.	.	.	.
=23	=23	=23	=23	=23	=23	=23	=23	=23	=23	=23
16d	hold	16A	hold	1r	.	4.CM	C:maj (F C E G)	.	.	voice
16A	you	16A	you	.	.	.	.	.	.	.
16c	down	16A	down	.	.	.	.	.	.	.
16A	and	16F	and	.	.	.	.	.	.	.
8c	make	8A	make	.	.	.	.	.	.	.
16A	you	16F	you	.	.	8%5FM	F:maj (F A C)	.	.	voice
16c	cry	16A	cry	.	.	.	.	.	.	.
8A	_	8F	_	.	.	.	.	.	.	.
8r	.	8r	.	.	.	.	.	.	.	.
16c	Don't	4r	.	.	.	.	.	.	.	.
16d	you	.	.	.	.	.	.	.	.	.
8f	know	.	.	.	.	.	.	.	.	.
=24	=24	=24	=24	=24	=24	=24	=24	=24	=24	=24
8r	.	8r	.	1r	.	4.FM	F:maj (F A C)	newline	56.897	voice
16f a	don't	16c	don't	.	.	.	.	.	.	.
16g b-	you	16d	you	.	.	.	.	.	.	.
16g b-	know	16d	know	.	.	.	.	.	.	.
16a cc	_	16f	_	.	.	.	.	.	.	.
8r	.	8r	.	.	.	8%5B-M	B-:maj (F B- D)	.	.	voice
16f a	things	16c	things	.	.	.	.	.	.	.
16g b-	'll	16d	'll	.	.	.	.	.	.	.
16g b-	change	16d	change	.	.	.	.	.	.	.
16a cc	_	16f	_	.	.	.	.	.	.	.
4r	.	4r	.	.	.	.	.	.	.	.
=25	=25	=25	=25	=25	=25	=25	=25	=25	=25	=25
16f a	things	16c	things	1r	.	4.CM	C:maj (F C E G)	.	.	voice
16g b-	'll	16d	'll	.	.	.	.	.	.	.
16a cc	go	16f	go	.	.	.	.	.	.	.
16a cc	y-	16f	y-	.	.	.	.	.	.	.
8a cc	-your	8f	-your	.	.	.	.	.	.	.
8a cc	way	8f	way	.	.	8%5FM	F:maj (F A C)	.	.	voice
8r	.	2r	.	.	.	.	.	.	.	.
16f	Can	.	.	.	.	.	.	.	.	.
16f	you	.	.	.	.	.	.	.	.	.
8b-q	_	.	.	.	.	.	.	.	.	.
[4cc	hold	.	.	.	.	.	.	.	.	.
=26	=26	=26	=26	=26	=26	=26	=26	=26	=26	=26
8cc]	_	1r	.	1r	.	4.B-M	B-:maj (B- D F)	.	.	voice
8f	_	.	.	.	.	.	.	.	.	.
8f	_	.	.	.	.	.	.	.	.	.
8f	on	.	.	.	.	2FM	F:maj (A F C)	.	.	voice
8c	_	.	.	.	.	.	.	.	.	.
8r	.	.	.	.	.	.	.	.	.	.
8f	for	.	.	.	.	.	.	.	.	.
8f	one	.	.	.	.	8Gmm	G:min7 (G B- D F)	.	.	voice
=27	=27	=27	=27	=27	=27	=27	=27	=27	=27	=27
*	*	*clefG2	*	*	*	*	*	*	*	*
8f	more	2r	.	1r	.	2Gmm	G:min7 (G B- D F)	.	.	voice
8cq	_	.	.	.	.	.	.	.	.	.
8d	day	.	.	.	.	.	.	.	.	.
4c	_	.	.	.	.	.	.	.	.	.
8r	.	8r	.	.	.	2CM	C:sus4 (C F G)	.	.	voice
16c	Can	16c	Can	.	.	.	.	.	.	.
16c	you	16c	you	.	.	.	.	.	.	.
[4g	hold	[4b-	hold	.	.	.	.	.	.	.
=28	=28	=28	=28	=28	=28	=28	=28	=28	=28	=28
8g]	_	8b-]	_	1r	.	4.B-M	B-:maj (B- D F)	newline	66.642	voice
24g	_	24b-	_	.	.	.	.	.	.	.
24a-	_	24cc	_	.	.	.	.	.	.	.
[24g	_	24b-	_	.	.	.	.	.	.	.
8g]	_	8a	_	.	.	.	.	.	.	.
8f	on	8a	on	.	.	8%5FM	F:maj (A F C)	.	.	voice
8cq	_	8fq	_	.	.	.	.	.	.	.
8d	_	8g	_	.	.	.	.	.	.	.
8c	_	8f	_	.	.	.	.	.	.	.
8c	for	8f	for	.	.	.	.	.	.	.
8c	one	8f	one	.	.	.	.	.	.	.
=29	=29	=29	=29	=29	=29	=29	=29	=29	=29	=29
8f	more	8b-	more	1r	.	1Gmm	G:min7 (G B- D F)	.	.	voice
4f	day	4b-	day	.	.	.	.	.	.	.
8r	.	8r	.	.	.	.	.	.	.	.
8f	Things	2r	.	.	.	.	.	.	.	.
16d	'll	.	.	.	.	.	.	.	.	.
[16f	go	.	.	.	.	.	.	.	.	.
16f]	_	.	.	.	.	.	.	.	.	.
16f	your	.	.	.	.	.	.	.	.	.
8d	way	.	.	.	.	.	.	.	.	.
=30	=30	=30	=30	=30	=30	=30	=30	=30	=30	=30
[2c	_	1r	.	1r	.	1CM	C:sus4(b7) (C F G B-)	.	.	voice
8c]	_	.	.	.	.	.	.	.	.	.
8d	_	.	.	.	.	.	.	.	.	.
4r	.	.	.	.	.	.	.	.	.	.
=31	=31	=31	=31	=31	=31	=31	=31	=31	=31	=31
8r	.	8r	.	1r	.	1CM	C:maj (C E G)	.	.	voice
8aq	_	8fq	_	.	.	.	.	.	.	.
8b-	_	8g	_	.	.	.	.	.	.	.
8a	on	8f	on	.	.	.	.	.	.	.
8f	for	8c	for	.	.	.	.	.	.	.
8f	one	8c	one	.	.	.	.	.	.	.
8c	more	8A	more	.	.	.	.	.	.	.
8dq	_	8B-q	_	.	.	.	.	.	.	.
8f	day	8c	day	.	.	.	.	.	.	.
8r	.	8r	.	.	.	.	.	.	.	.
=32	=32	=32	=32	=32	=32	=32	=32	=32	=32	=32
*	*	*	*	*	*	*>D_interlude	*>D_interlude	*>D_interlude	*>D_interlude	*>D_interlude
1r	.	1r	.	1r	.	4.FM	F:maj (F A C)	newline	76.478	guitar
.	.	.	.	.	.	2CM	C:maj (F C E G)	.	.	guitar
.	.	.	.	.	.	8B-M	B-:maj (F B- D)	.	.	guitar
=33	=33	=33	=33	=33	=33	=33	=33	=33	=33	=33
1r	.	1r	.	1r	.	2.B-M	B-:maj (F B- D)	.	.	guitar
.	.	.	.	.	.	4CM	C:maj (F C E G)	.	.	guitar
=34	=34	=34	=34	=34	=34	=34	=34	=34	=34	=34
1r	.	1r	.	1r	.	4.FM	F:maj (F A C)	.	.	guitar
.	.	.	.	.	.	2CM	C:maj (F C E G)	.	.	guitar
.	.	.	.	.	.	8B-M	B-:maj (F B- D)	.	.	guitar
=35	=35	=35	=35	=35	=35	=35	=35	=35	=35	=35
1r	.	1r	.	1r	.	2.B-M	B-:maj (F B- D)	.	.	guitar
.	.	.	.	.	.	4CM	C:maj (F C E G)	.	.	guitar
=36	=36	=36	=36	=36	=36	=36	=36	=36	=36	=36
*	*	*	*	*	*	*>B_verse	*>B_verse	*>B_verse	*>B_verse	*>B_verse
8a	You	8c	_	1r	.	4.FM	F:maj (F A C)	newline	86.28	voice
8f	could	8A	_	.	.	.	.	.	.	.
8f	sus-	8A	_	.	.	.	.	.	.	.
.	.	8B-q	_	.	.	.	.	.	.	.
8f	-stain	8c	_	.	.	2CM	C:maj (F C E G)	.	.	voice
2r	.	2r	.	.	.	.	.	.	.	.
.	.	.	.	.	.	8B-M	B-:maj (F B- D)	.	.	voice
=37	=37	=37	=37	=37	=37	=37	=37	=37	=37	=37
4r	.	4r	.	1r	.	2.B-M	B-:maj (F B- D)	.	.	voice
8r	.	8r	.	.	.	.	.	.	.	.
[8a	mmm,	[8d	_	.	.	.	.	.	.	.
8a]	_	8d]	_	.	.	.	.	.	.	.
8a	or	8d	_	.	.	.	.	.	.	.
8a	are	8d	_	.	.	4Am	A:min (E A C)	.	.	voice
8a	you	8d	_	.	.	.	.	.	.	.
=38	=38	=38	=38	=38	=38	=38	=38	=38	=38	=38
8a	comf-	8d	_	1r	.	2..Dm	D:min (D F A)	.	.	voice
8f	-ta-	8A	_	.	.	.	.	.	.	.
8f	-ble	8A	_	.	.	.	.	.	.	.
8f	with	8A	_	.	.	.	.	.	.	.
8e	the	8A	_	.	.	.	.	.	.	.
8eq	_	8Aq	_	.	.	.	.	.	.	.
4f	pain	4B-	_	.	.	.	.	.	.	.
8r	.	8r	.	.	.	8B-M	B-:maj (B- D F)	.	.	voice
=39	=39	=39	=39	=39	=39	=39	=39	=39	=39	=39
2r	.	1r	.	1r	.	2B-M	B-:maj (B- D F)	.	.	voice
4r	.	.	.	.	.	2CM	C:sus4(b7) (C F G B-)	.	.	voice
8c	You've	.	.	.	.	.	.	.	.	.
8c	got	.	.	.	.	.	.	.	.	.
=40	=40	=40	=40	=40	=40	=40	=40	=40	=40	=40
8cq	_	.	.	.	.	.	.	.	.	.
8d	no	1r	.	1r	.	4.FM	F:maj (F A C)	newline	96.171	voice
8f	one	.	.	.	.	.	.	.	.	.
8f	to	.	.	.	.	.	.	.	.	.
8cq	_	.	.	.	.	.	.	.	.	.
[8d	blame	.	.	.	.	2CM	C:maj (F C E G)	.	.	voice
16d]	_	.	.	.	.	.	.	.	.	.
16f	for	.	.	.	.	.	.	.	.	.
8f	this	.	.	.	.	.	.	.	.	.
8f	un-	.	.	.	.	.	.	.	.	.
8cq	_	.	.	.	.	.	.	.	.	.
[8d	-ha	.	.	.	.	8B-M	B-:maj (F B- D)	.	.	voice
=41	=41	=41	=41	=41	=41	=41	=41	=41	=41	=41
16d]	_	2r	.	1r	.	2.B-M	B-:maj (F B- D)	.	.	voice
16c	pi-	.	.	.	.	.	.	.	.	.
[8c	-ness	.	.	.	.	.	.	.	.	.
8c]	_	.	.	.	.	.	.	.	.	.
8r	.	.	.	.	.	.	.	.	.	.
2r	.	8r	.	.	.	.	.	.	.	.
.	.	8cc	No,	.	.	.	.	.	.	.
.	.	8g	ba-	.	.	4CM	C:maj (F C E G)	.	.	voice
.	.	[8f	-by	.	.	.	.	.	.	.
=42	=42	=42	=42	=42	=42	=42	=42	=42	=42	=42
8a	You	4.f]	_	1r	.	4.FM	F:maj (F A C)	.	.	voice
8a	got	.	.	.	.	.	.	.	.	.
8a	your-	.	.	.	.	.	.	.	.	.
8a	-self	8r	.	.	.	2CM	C:maj (F C E G)	.	.	voice
8a	in-	4r	.	.	.	.	.	.	.	.
8a	-to	.	.	.	.	.	.	.	.	.
8a	your	4r	.	.	.	.	.	.	.	.
8cc	own	.	.	.	.	8B-M	B-:maj (F B- D)	.	.	voice
=43	=43	=43	=43	=43	=43	=43	=43	=43	=43	=43
8f	mess	4r	.	1r	.	2.B-M	B-:maj (F B- D)	.	.	voice
8r	.	.	.	.	.	.	.	.	.	.
4r	.	8r	.	.	.	.	.	.	.	.
.	.	[8a	Ooh	.	.	.	.	.	.	.
2r	.	16a]	_	.	.	.	.	.	.	.
.	.	16g	_	.	.	.	.	.	.	.
.	.	[8f	_	.	.	.	.	.	.	.
.	.	16f]	_	.	.	4CM	C:maj (F C E G)	.	.	voice
.	.	16d	_	.	.	.	.	.	.	.
.	.	[8c	_	.	.	.	.	.	.	.
=44	=44	=44	=44	=44	=44	=44	=44	=44	=44	=44
8a	Let-	4c]	_	1r	.	4.FM	F:maj (F A C)	newline	105.966	voice
8c	-tin'	.	.	.	.	.	.	.	.	.
8c	your	4r	.	.	.	.	.	.	.	.
8g	wor-	.	.	.	.	2CM	C:maj (F C E G)	.	.	voice
8fq	_	.	.	.	.	.	.	.	.	.
8g	-ries	2r	.	.	.	.	.	.	.	.
8g	pass	.	.	.	.	.	.	.	.	.
8a	you	.	.	.	.	.	.	.	.	.
8fq	_	.	.	.	.	.	.	.	.	.
8g	by	.	.	.	.	8B-M	B-:maj (F B- D)	.	.	voice
=45	=45	=45	=45	=45	=45	=45	=45	=45	=45	=45
8f	_	8a	Let-	1r	.	2.B-M	B-:maj (F B- D)	.	.	voice
8d	_	8c	-tin'	.	.	.	.	.	.	.
8r	.	8c	your	.	.	.	.	.	.	.
8f	Huh!	8g	wor	.	.	.	.	.	.	.
.	.	8fq	_	.	.	.	.	.	.	.
8r	.	8g	ries	.	.	.	.	.	.	.
[8f	ba	8g	pass	.	.	.	.	.	.	.
8f]	_	8a	you	.	.	4Am	A:min (E A C)	.	.	voice
.	.	8fq	_	.	.	.	.	.	.	.
8d	by	8g	by!	.	.	.	.	.	.	.
=46	=46	=46	=46	=46	=46	=46	=46	=46	=46	=46
8r	.	4f	_	1r	.	8%5Dm	D:min (D F A)	.	.	voice
8f	Don't	.	.	.	.	.	.	.	.	.
8d	you	4r	.	.	.	.	.	.	.	.
8f	think	.	.	.	.	.	.	.	.	.
8d	it's	4r	.	.	.	.	.	.	.	.
8f	worth	.	.	.	.	4F	F:maj (A F C)	.	.	voice
8d	your	8r	.	.	.	.	.	.	.	.
8f	time	8b-	time	.	.	8B-M	B-:maj (B- D F)	.	.	voice
=47	=47	=47	=47	=47	=47	=47	=47	=47	=47	=47
*clefF4	*	*	*	*	*	*	*	*	*	*
8eq	_	8aq	_	.	.	.	.	.	.	.
8f	_	8b-	_	1r	.	1B-M	B-:maj (B- D F)	.	.	voice
*	*	*clefF4	*	*	*	*	*	*	*	*
16r	.	16r	.	.	.	.	.	.	.	.
16A	to	16A	to	.	.	.	.	.	.	.
8cq	_	8Aq	_	.	.	.	.	.	.	.
8d	change	8B-	change	.	.	.	.	.	.	.
8c	_	8A	_	.	.	.	.	.	.	.
8c	your	8F	your	.	.	.	.	.	.	.
8Aq	_	8Fq	_	.	.	.	.	.	.	.
8B-	mind	8F	mind	.	.	.	.	.	.	.
4r	.	4r	.	.	.	.	.	.	.	.
=48	=48	=48	=48	=48	=48	=48	=48	=48	=48	=48
4c	_	4G	_	1r	.	1CM	C:sus4(b7) (C F G B-)	.	.	voice
*clefG2	*	*	*	*	*	*	*	*	*	*
8r	.	8r	.	.	.	.	.	.	.	.
8dd	No,	8r	.	.	.	.	.	.	.	.
8cc	_	2r	.	.	.	.	.	.	.	.
8g	n-	.	.	.	.	.	.	.	.	.
8g	-no!	.	.	.	.	.	.	.	.	.
8f	_	.	.	.	.	.	.	.	.	.
=49	=49	=49	=49	=49	=49	=49	=49	=49	=49	=49
*	*	*	*	*	*	*>C_chorus	*>C_chorus	*>C_chorus	*>C_chorus	*>C_chorus
8r	.	8r	.	1r	.	4.FM	F:maj (F A C)	newline	118.208	voice
8d	Some	8A	Some	.	.	.	.	.	.	.
8f	day	8c	day	.	.	.	.	.	.	.
8d	some-	8B-	some-	.	.	8%5B-M	B-:maj (F B- D)	.	.	voice
16f	-bo-	16c	-bo-	.	.	.	.	.	.	.
16f	-dy's	16c	-dy's	.	.	.	.	.	.	.
16d	gon-	16B-	gon-	.	.	.	.	.	.	.
16d	-na	16B-	-na	.	.	.	.	.	.	.
16f	make	16c	make	.	.	.	.	.	.	.
16f	you	16c	you	.	.	.	.	.	.	.
16f	wan-	16c	wan-	.	.	.	.	.	.	.
16d	-na	16A	-na	.	.	.	.	.	.	.
=50	=50	=50	=50	=50	=50	=50	=50	=50	=50	=50
16f	turn	16c	turn	1r	.	4.CM	C:maj (F C E G)	.	.	voice
16f	a-	16c	a-	.	.	.	.	.	.	.
16f	-round	16c	-round	.	.	.	.	.	.	.
16d	and	16A	and	.	.	.	.	.	.	.
8f	say	8c	say	.	.	.	.	.	.	.
16d	good-	16A	good-	.	.	8%5FM	F:maj (F A C)	.	.	voice
[16a [cc	-bye	[16f	-bye	.	.	.	.	.	.	.
8a] cc]	_	8f]	_	.	.	.	.	.	.	.
8gq 8b-q	_	8eq	_	.	.	.	.	.	.	.
8a cc	_	8f	_	.	.	.	.	.	.	.
4r	.	4r	.	.	.	.	.	.	.	.
=51	=51	=51	=51	=51	=51	=51	=51	=51	=51	=51
16r	.	8r	.	1r	.	4.FM	F:maj (F A C)	.	.	voice
16f	_	.	.	.	.	.	.	.	.	.
8cc ff	'Till	8a	'Till	.	.	.	.	.	.	.
8cc ff	then,	8a	then,	.	.	.	.	.	.	.
8f cc	ba-	16c	ba-	.	.	8%5B-M	B-:maj (F B- D)	.	.	voice
.	.	16d	_	.	.	.	.	.	.	.
8f cc	-by,	8d	-by,	.	.	.	.	.	.	.
16c	are	16F	are	.	.	.	.	.	.	.
16c	you	16G	you	.	.	.	.	.	.	.
16c	gon-	16A	gon-	.	.	.	.	.	.	.
16c	-na	16A	-na	.	.	.	.	.	.	.
16c	let	16A	let	.	.	.	.	.	.	.
16A	'em	16F	'em	.	.	.	.	.	.	.
=52	=52	=52	=52	=52	=52	=52	=52	=52	=52	=52
16d	hold	16A	hold	1r	.	4.CM	C:maj (F C E G)	.	.	voice
16A	you	16A	you	.	.	.	.	.	.	.
16c	down	16A	down	.	.	.	.	.	.	.
16A	and	16F	and	.	.	.	.	.	.	.
8c	make	8A	make	.	.	.	.	.	.	.
16A	you	16F	you	.	.	8%5FM	F:maj (F A C)	.	.	voice
16c	cry	16A	cry	.	.	.	.	.	.	.
8A	_	8F	_	.	.	.	.	.	.	.
8r	.	8r	.	.	.	.	.	.	.	.
16c	Don't	16c	Don't	.	.	.	.	.	.	.
16d	you	16d	you	.	.	.	.	.	.	.
8f	know	8f	know	.	.	.	.	.	.	.
=53	=53	=53	=53	=53	=53	=53	=53	=53	=53	=53
*	*	*clefG2	*	*	*	*	*	*	*	*
8r	.	8r	.	1r	.	4.FM	F:maj (F A C)	newline	128.072	voice
16f a	don't	16c	don't	.	.	.	.	.	.	.
16g b-	you	16d	you	.	.	.	.	.	.	.
16g b-	know	16d	know	.	.	.	.	.	.	.
16a cc	_	16f	_	.	.	.	.	.	.	.
8r	.	8r	.	.	.	8%5B-M	B-:maj (F B- D)	.	.	voice
16f a	things	16c	things	.	.	.	.	.	.	.
16g b-	'll	16d	'll	.	.	.	.	.	.	.
16g b-	change	16d	change	.	.	.	.	.	.	.
16a cc	_	16f	_	.	.	.	.	.	.	.
4r	.	4r	.	.	.	.	.	.	.	.
=54	=54	=54	=54	=54	=54	=54	=54	=54	=54	=54
16f a	things	16c	things	1r	.	4.CM	C:maj (F C E G)	.	.	voice
16g b-	'll	16d	'll	.	.	.	.	.	.	.
16a cc	go	16f	go	.	.	.	.	.	.	.
16a cc	y-	16f	y-	.	.	.	.	.	.	.
8a cc	-your	8f	-your	.	.	.	.	.	.	.
8a cc	way	8f	way?	.	.	8%5FM	F:maj (F A C)	.	.	voice
8r	.	2r	.	.	.	.	.	.	.	.
16f	Can	.	.	.	.	.	.	.	.	.
16f	you	.	.	.	.	.	.	.	.	.
8b-q	_	.	.	.	.	.	.	.	.	.
[4cc	hold	.	.	.	.	.	.	.	.	.
=55	=55	=55	=55	=55	=55	=55	=55	=55	=55	=55
8cc]	_	1r	.	1r	.	4.B-M	B-:maj (B- D F)	.	.	voice
8f	_	.	.	.	.	.	.	.	.	.
8f	_	.	.	.	.	.	.	.	.	.
8f	on	.	.	.	.	8%5FM	F:maj (A F C)	.	.	voice
8c	_	.	.	.	.	.	.	.	.	.
8r	.	.	.	.	.	.	.	.	.	.
8f	for	.	.	.	.	.	.	.	.	.
8f	one	.	.	.	.	.	.	.	.	.
=56	=56	=56	=56	=56	=56	=56	=56	=56	=56	=56
8f	more	2r	.	1r	.	4.Gmm	G:min7 (G B- D F)	.	.	voice
8cq	_	.	.	.	.	.	.	.	.	.
8d	day	.	.	.	.	.	.	.	.	.
4c	_	.	.	.	.	.	.	.	.	.
.	.	.	.	.	.	8%5CM	C:sus4 (C F G)	.	.	voice
8r	.	8r	.	.	.	.	.	.	.	.
16c	Can	16c	Can	.	.	.	.	.	.	.
16c	you	16c	you	.	.	.	.	.	.	.
[4g	hold	[4b-	hold	.	.	.	.	.	.	.
=57	=57	=57	=57	=57	=57	=57	=57	=57	=57	=57
8g]	_	8b-]	_	1r	.	4.B-M	B-:maj (B- D F)	newline	137.805	voice
24g	_	24b-	_	.	.	.	.	.	.	.
24a-	_	24cc	_	.	.	.	.	.	.	.
[24g	_	24b-	_	.	.	.	.	.	.	.
8g]	_	8a	_	.	.	.	.	.	.	.
8f	on	8a	on	.	.	8%5FM	F:maj (A F C)	.	.	voice
8cq	_	8fq	_	.	.	.	.	.	.	.
8d	_	8g	_	.	.	.	.	.	.	.
8c	_	8f	_	.	.	.	.	.	.	.
8c	for	8f	for	.	.	.	.	.	.	.
8c	one	8f	one	.	.	.	.	.	.	.
=58	=58	=58	=58	=58	=58	=58	=58	=58	=58	=58
8f	more	8b-	more	1r	.	1Gmm	G:min7 (G B- D F)	.	.	voice
4f	day	4b-	day	.	.	.	.	.	.	.
8r	.	8r	.	.	.	.	.	.	.	.
8f	Things	2r	.	.	.	.	.	.	.	.
16d	'll	.	.	.	.	.	.	.	.	.
[16f	go	.	.	.	.	.	.	.	.	.
16f]	_	.	.	.	.	.	.	.	.	.
16f	your	.	.	.	.	.	.	.	.	.
8d	way	.	.	.	.	.	.	.	.	.
=59	=59	=59	=59	=59	=59	=59	=59	=59	=59	=59
[2c	_	4f	Oh,	1r	.	1CM	C:sus4(b7) (C F G B-)	.	.	voice
.	.	8f	things	.	.	.	.	.	.	.
.	.	8f	will	.	.	.	.	.	.	.
8c]	_	4f	go	.	.	.	.	.	.	.
8d	_	.	.	.	.	.	.	.	.	.
4r	.	8f	your	.	.	.	.	.	.	.
.	.	[8f	way	.	.	.	.	.	.	.
=60	=60	=60	=60	=60	=60	=60	=60	=60	=60	=60
8r	.	4.f]	_	1r	.	1CM	C:maj (C E G)	.	.	voice
8aq	_	.	.	.	.	.	.	.	.	.
8b-	_	.	.	.	.	.	.	.	.	.
8a	on	.	.	.	.	.	.	.	.	.
8f	for	8r	.	.	.	.	.	.	.	.
8f	one	2r	.	.	.	.	.	.	.	.
8c	more	.	.	.	.	.	.	.	.	.
8B-q	_	.	.	.	.	.	.	.	.	.
16c	day!	.	.	.	.	.	.	.	.	.
16B-	_	.	.	.	.	.	.	.	.	.
8A	_	.	.	.	.	.	.	.	.	.
=61	=61	=61	=61	=61	=61	=61	=61	=61	=61	=61
*clefF4	*	*	*	*	*	*>E_bridge	*>E_bridge	*>E_bridge	*>E_bridge	*>E_bridge
8r	.	1r	.	1r	.	4.FM	F:maj (F A C)	newline	147.689	voice
8d	I	.	.	.	.	.	.	.	.	.
8f	know	.	.	.	.	.	.	.	.	.
16d	that	.	.	.	.	2CM	C:maj (F C E G)	.	.	voice
[16f	there	.	.	.	.	.	.	.	.	.
16f]	_	.	.	.	.	.	.	.	.	.
16d	is	.	.	.	.	.	.	.	.	.
[8c	pain,	.	.	.	.	.	.	.	.	.
8c]	_	.	.	.	.	.	.	.	.	.
16c	but	.	.	.	.	8B-M	B-:maj (F B- D)	.	.	voice
16c	you	.	.	.	.	.	.	.	.	.
=62	=62	=62	=62	=62	=62	=62	=62	=62	=62	=62
8r	.	1r	.	1r	.	2.B-M	B-:maj (F B- D)	.	.	voice
16c	hold	.	.	.	.	.	.	.	.	.
16d	_	.	.	.	.	.	.	.	.	.
8f	on	.	.	.	.	.	.	.	.	.
16d	for	.	.	.	.	.	.	.	.	.
[16f	one	.	.	.	.	.	.	.	.	.
16f]	_	.	.	.	.	.	.	.	.	.
16d	more	.	.	.	.	.	.	.	.	.
[8c	day,	.	.	.	.	.	.	.	.	.
8c]	_	.	.	.	.	4CM	C:maj (F C E G)	.	.	voice
16c	and	.	.	.	.	.	.	.	.	.
16c	you	.	.	.	.	.	.	.	.	.
=63	=63	=63	=63	=63	=63	=63	=63	=63	=63	=63
*clefG2	*	*	*	*	*	*	*	*	*	*
8r	.	8r	.	1r	.	4.FM	F:maj (F A C)	.	.	voice
8a	break	8f	break	.	.	.	.	.	.	.
8.g	free	8.e	free	.	.	.	.	.	.	.
.	.	.	.	.	.	2CM	C:maj (F C E G)	.	.	voice
[16e	from	[16c	from	.	.	.	.	.	.	.
16e]	_	16c]	_	.	.	.	.	.	.	.
16e	the	16c	the	.	.	.	.	.	.	.
[8e	chains	[8c	chains	.	.	.	.	.	.	.
8e]	_	8c]	_	.	.	.	.	.	.	.
[8d	_	[8B-	_	.	.	8B-M	B-:maj (F B- D)	.	.	voice
=64	=64	=64	=64	=64	=64	=64	=64	=64	=64	=64
2.d]	_	2.B-]	_	1r	.	1B-M	B-:maj (F B- D)	.	.	voice
4r	.	4r	.	.	.	.	.	.	.	.
=65	=65	=65	=65	=65	=65	=65	=65	=65	=65	=65
16r	.	1r	.	1r	.	4.FM	F:maj (F A C)	newline	157.509	voice
16c	Yeah,	.	.	.	.	.	.	.	.	.
8cc	I	.	.	.	.	.	.	.	.	.
8g	know	.	.	.	.	.	.	.	.	.
16g	that	.	.	.	.	2CM	C:maj (F C E G)	.	.	voice
[16g	there	.	.	.	.	.	.	.	.	.
16g]	_	.	.	.	.	.	.	.	.	.
16f	is	.	.	.	.	.	.	.	.	.
[8f	pain,	.	.	.	.	.	.	.	.	.
8f]	_	.	.	.	.	.	.	.	.	.
16d	but	.	.	.	.	8B-M	B-:maj (F B- D)	.	.	voice
16F	you	.	.	.	.	.	.	.	.	.
=66	=66	=66	=66	=66	=66	=66	=66	=66	=66	=66
8r	.	1r	.	1r	.	2.B-M	B-:maj (F B- D)	.	.	voice
16c	hold	.	.	.	.	.	.	.	.	.
16d	_	.	.	.	.	.	.	.	.	.
8f	on	.	.	.	.	.	.	.	.	.
16d	for	.	.	.	.	.	.	.	.	.
[16f	one	.	.	.	.	.	.	.	.	.
16f]	_	.	.	.	.	.	.	.	.	.
16d	more	.	.	.	.	.	.	.	.	.
8fq	_	.	.	.	.	.	.	.	.	.
[8g	day,	.	.	.	.	.	.	.	.	.
8g]	_	.	.	.	.	4CM	C:maj (F C E G)	.	.	voice
16g	and	.	.	.	.	.	.	.	.	.
16g	you	.	.	.	.	.	.	.	.	.
=67	=67	=67	=67	=67	=67	=67	=67	=67	=67	=67
8r	.	1r	.	1r	.	4.FM	F:maj (F A C)	.	.	voice
8cc	break	.	.	.	.	.	.	.	.	.
16g	free,	.	.	.	.	.	.	.	.	.
16a	_	.	.	.	.	.	.	.	.	.
8cc	break	.	.	.	.	2CM	C:maj (F C E G)	.	.	voice
8g	from	.	.	.	.	.	.	.	.	.
16g	the	.	.	.	.	.	.	.	.	.
[16g	chains	.	.	.	.	.	.	.	.	.
8g]	_	.	.	.	.	.	.	.	.	.
[8f	_	.	.	.	.	8B-M	B-:maj (F B- D)	.	.	voice
=68	=68	=68	=68	=68	=68	=68	=68	=68	=68	=68
8.f]	_	1r	.	1r	.	1B-M	B-:maj (F B- D)	.	.	voice
16r	.	.	.	.	.	.	.	.	.	.
4r	.	.	.	.	.	.	.	.	.	.
2r	.	.	.	.	.	.	.	.	.	.
=69	=69	=69	=69	=69	=69	=69	=69	=69	=69	=69
*	*	*	*	*	*	*>F_outro	*>F_outro	*>F_outro	*>F_outro	*>F_outro
8r	.	8r	.	1r	.	4.FM	N	newline	167.347	voice
8d g	Some	8A	Some	.	.	.	.	.	.	.
8f a	day	8c	day	.	.	.	.	.	.	.
8d g	some-	8B-	some-	.	.	8%5B-M	N	.	.	voice
16f a	-bo-	16c	-bo-	.	.	.	.	.	.	.
16f a	-dy's	16c	-dy's	.	.	.	.	.	.	.
16d g	gon-	16B-	gon-	.	.	.	.	.	.	.
16d g	-na	16B-	-na	.	.	.	.	.	.	.
16f a	make	16c	make	.	.	.	.	.	.	.
16f a	you	16c	you	.	.	.	.	.	.	.
16f a	wan-	16c	wan-	.	.	.	.	.	.	.
16d g	-na	16A	-na	.	.	.	.	.	.	.
=70	=70	=70	=70	=70	=70	=70	=70	=70	=70	=70
16f a	turn	16c	turn	1r	.	8.CM	N	.	.	voice
16f a	a-	16c	a-	.	.	.	.	.	.	.
16f a	-round	16c	-round	.	.	.	.	.	.	.
16d g	and	16A	and	.	.	8%5F	N	.	.	voice
8f a	say	8c	say	.	.	.	.	.	.	.
16d g	good-	16A	good-	.	.	.	.	.	.	.
[16a [cc	-bye	[16f	-bye	.	.	.	.	.	.	.
8a] cc]	_	8f]	_	.	.	.	.	.	.	.
8gq 8b-q	_	8eq	_	.	.	.	.	.	.	.
8a cc	_	8f	_	.	.	.	.	.	.	.
4r	.	8f	(Say,	.	.	.	.	.	.	.
=71	=71	=71	=71	=71	=71	=71	=71	=71	=71	=71
.	.	.	.	.	.	4.FM	N	newline	167.347	voice
.	.	16d	good-	.	.	.	.	.	.	.
.	.	[16a	-bye	.	.	.	.	.	.	.
=71	=71	=71	=71	=71	=71	=71	=71	=71	=71	=71
16r	.	8a]	_	8r	.	.	.	.	.	.
16f	_	.	.	.	.	.	.	.	.	.
.	.	8gq	_	.	.	.	.	.	.	.
16b- dd	'Till	8a	_	16g	'Till	.	.	.	.	.
16cc ff	_	.	.	16a	_	8%5B-M	N	.	.	voice
8cc ff	then,	4r	.	8a	then,	.	.	.	.	.
8f a	ba-	.	.	16c	ba-	.	.	.	.	.
.	.	.	.	16d	_	.	.	.	.	.
8f b-	-by,	2r	.	8d	-by,	.	.	.	.	.
*	*	*	*	*clefF4	*	*	*	*	*	*
16c	are	.	.	16F	are	.	.	.	.	.
16c	you	.	.	16G	you	.	.	.	.	.
16c	gon-	.	.	16A	gon-	.	.	.	.	.
=72	=72	=72	=72	=72	=72	=72	=72	=72	=72	=72
16c	-na	.	.	16A	-na	8.CM	N	.	.	voice
16c	let	.	.	16A	let	.	.	.	.	.
16A	'em	.	.	16F	'em	.	.	.	.	.
=72	=72	=72	=72	=72	=72	=72	=72	=72	=72	=72
16d	hold	2r	.	16A	hold	8%5F	N	.	.	voice
16A	you	.	.	16A	you	.	.	.	.	.
16c	down	.	.	16A	down	.	.	.	.	.
16A	and	.	.	16F	and	.	.	.	.	.
8c	make	.	.	8A	make	.	.	.	.	.
16A	you	.	.	16F	you	.	.	.	.	.
16c	cry	.	.	16A	cry	.	.	.	.	.
8A	_	4r	.	8F	_	.	.	.	.	.
=73	=73	=73	=73	=73	=73	=73	=73	=73	=73	=73
8r	.	.	.	8r	.	4.FM	F:1 (F)	newline	177.191	voice
16c	Don't	16c	Don't	8r	.	.	.	.	.	.
16d	you	16d	you	.	.	.	.	.	.	.
8f	know	8f	know	8r	.	.	.	.	.	.
=73	=73	=73	=73	=73	=73	=73	=73	=73	=73	=73
.	.	8cq	_	.	.	.	.	.	.	.
8r	.	8d	_	8r	.	8%5B-	F:1 (F)	.	.	voice
16f a	don't	8r	.	16c	don't	.	.	.	.	.
16g b-	you	.	.	16d	you	.	.	.	.	.
16g b-	know	8r	.	16d	know	.	.	.	.	.
16a cc	_	.	.	16f	_	.	.	.	.	.
8r	.	8f	Know!	8r	.	.	.	.	.	.
16f a	things	4r	.	16c	things	.	.	.	.	.
16g b-	'll	.	.	16d	'll	.	.	.	.	.
=74	=74	=74	=74	=74	=74	=74	=74	=74	=74	=74
16g b-	change	.	.	16d	change	4.CM	F:1 (F)	.	.	voice
16a cc	_	.	.	16f	_	.	.	.	.	.
.	.	8gq	_	.	.	.	.	.	.	.
4r	.	8a	Know!	4r	.	.	.	.	.	.
.	.	8r	.	.	.	.	.	.	.	.
=74	=74	=74	=74	=74	=74	=74	=74	=74	=74	=74
16f a	things	1r	.	16c	things	8%5FM	F:1 (F)	.	.	voice
16g b-	'll	.	.	16d	'll	.	.	.	.	.
16a cc	go	.	.	16f	go	.	.	.	.	.
16a cc	y-	.	.	16f	y-	.	.	.	.	.
8a cc	-your	.	.	8f	-your	.	.	.	.	.
8a cc	way	.	.	8f	way	.	.	.	.	.
8r	.	.	.	2r	.	.	.	.	.	.
=75	=75	=75	=75	=75	=75	=75	=75	=75	=75	=75
16f	Can	.	.	.	.	4.B-M	B-:maj (B- D F)	.	.	voice
16f	you	.	.	.	.	.	.	.	.	.
8b-q	_	.	.	.	.	.	.	.	.	.
[4cc	hold	.	.	.	.	.	.	.	.	.
=75	=75	=75	=75	=75	=75	=75	=75	=75	=75	=75
8cc]	_	1r	.	1r	.	8%5FM	F:maj (A F C)	.	.	voice
8f	_	.	.	.	.	.	.	.	.	.
8f	_	.	.	.	.	.	.	.	.	.
8f	on	.	.	.	.	.	.	.	.	.
8c	_	.	.	.	.	.	.	.	.	.
=76	=76	=76	=76	=76	=76	=76	=76	=76	=76	=76
8r	.	.	.	.	.	2Gmm	G:min7 (G B- D F)	.	.	voice
8cc	for	.	.	.	.	.	.	.	.	.
8cc	one	.	.	.	.	.	.	.	.	.
=76	=76	=76	=76	=76	=76	=76	=76	=76	=76	=76
8g	more	4r	.	1r	.	.	.	.	.	.
8aq	_	.	.	.	.	.	.	.	.	.
8g	day	.	.	.	.	2CM	C:sus4 (C F G)	.	.	voice
4f	_	8r	.	.	.	.	.	.	.	.
.	.	16g	Yeah	.	.	.	.	.	.	.
.	.	16a	_	.	.	.	.	.	.	.
8r	.	8r	.	.	.	.	.	.	.	.
=77	=77	=77	=77	=77	=77	=77	=77	=77	=77	=77
16c	Can	16c	Can	.	.	4.FM	F:maj (F A C)	newline	187.017	voice
16c	you	16c	you	.	.	.	.	.	.	.
8g	hold	8d	hold	.	.	.	.	.	.	.
8fq	_	8cq	_	.	.	.	.	.	.	.
[8g	_	[8d	_	.	.	.	.	.	.	.
=77	=77	=77	=77	=77	=77	=77	=77	=77	=77	=77
8g]	_	8d]	_	1r	.	8%5B-M	B-:maj (F B- D)	.	.	voice
16a	_	16f	_	.	.	.	.	.	.	.
16g	_	16d	_	.	.	.	.	.	.	.
8f	_	8c	_	.	.	.	.	.	.	.
[8f	on	[8c	on	.	.	.	.	.	.	.
2f_	_	2c_	_	.	.	.	.	.	.	.
=78	=78	=78	=78	=78	=78	=78	=78	=78	=78	=78
.	.	.	.	.	.	4.CM	C:maj (F C E G)	.	.	voice
=78	=78	=78	=78	=78	=78	=78	=78	=78	=78	=78
1f_	_	1f	_	1r	.	8%5FM	F:maj (F A C)	.	.	voice
=79	=79	=79	=79	=79	=79	=79	=79	=79	=79	=79
.	.	.	.	.	.	4.FM	F:maj (F A C)	.	.	voice
=79	=79	=79	=79	=79	=79	=79	=79	=79	=79	=79
4f_	_	1r	.	1r	.	8%5B-M	B-:maj (F B- D)	.	.	voice
16f]	_	.	.	.	.	.	.	.	.	.
8r	.	.	.	.	.	.	.	.	.	.
16r	.	.	.	.	.	.	.	.	.	.
2r	.	.	.	.	.	.	.	.	.	.
=80	=80	=80	=80	=80	=80	=80	=80	=80	=80	=80
.	.	.	.	.	.	4.CM	C:maj (F C E G)	.	.	voice
=80	=80	=80	=80	=80	=80	=80	=80	=80	=80	=80
1r	.	1r	.	1r	.	8%5FM	F:maj (F A C)	.	.	voice
=81	=81	=81	=81	=81	=81	=81	=81	=81	=81	=81
.	.	.	.	.	.	4.FM	F:maj (F A C)	newline	196.818	voice
=81	=81	=81	=81	=81	=81	=81	=81	=81	=81	=81
8r	.	8r	.	1r	.	8%5B-M	B-:maj (F B- D)	.	.	voice
16f a	don't	16c]	don't	.	.	.	.	.	.	.
16g b-	you	16d	you	.	.	.	.	.	.	.
16g b-	know	16d	know	.	.	.	.	.	.	.
16a cc	_	16f	_	.	.	.	.	.	.	.
8r	.	8r	.	.	.	.	.	.	.	.
16f a	things	16c	things	.	.	.	.	.	.	.
16g b-	'll	16d	'll	.	.	.	.	.	.	.
=82	=82	=82	=82	=82	=82	=82	=82	=82	=82	=82
16g b-	change	16d	change	.	.	4.CM	C:maj (F C E G)	.	.	voice
16a cc	_	16f	_	.	.	.	.	.	.	.
4r	.	4r	.	.	.	.	.	.	.	.
=82	=82	=82	=82	=82	=82	=82	=82	=82	=82	=82
16f a	things	16c	things	1r	.	8%5FM	F:maj (F A C)	.	.	voice
16g b-	'll	16d	'll	.	.	.	.	.	.	.
16a cc	go	16f	go	.	.	.	.	.	.	.
16a cc	y-	16f	y-	.	.	.	.	.	.	.
8a cc	-your	8f	-your	.	.	.	.	.	.	.
8a cc	way	8f	way	.	.	.	.	.	.	.
8r	.	2r	.	.	.	.	.	.	.	.
=83	=83	=83	=83	=83	=83	=83	=83	=83	=83	=83
16f	Can	.	.	.	.	4.B-M	B-:maj (B- D F)	.	.	voice
16f	you	.	.	.	.	.	.	.	.	.
8b-q	_	.	.	.	.	.	.	.	.	.
[4cc	hold	.	.	.	.	.	.	.	.	.
=83	=83	=83	=83	=83	=83	=83	=83	=83	=83	=83
8cc]	_	1r	.	1r	.	8%5FM	F:maj (A F C)	.	.	voice
8f	_	.	.	.	.	.	.	.	.	.
8f	_	.	.	.	.	.	.	.	.	.
8f	on	.	.	.	.	.	.	.	.	.
8c	_	.	.	.	.	.	.	.	.	.
=84	=84	=84	=84	=84	=84	=84	=84	=84	=84	=84
8r	.	.	.	.	.	2Gmm	G:min7 (G B- D F)	.	.	voice
8cc	for	.	.	.	.	.	.	.	.	.
8cc	one	.	.	.	.	.	.	.	.	.
=84	=84	=84	=84	=84	=84	=84	=84	=84	=84	=84
8g	more	2r	.	1r	.	.	.	.	.	.
8aq	_	.	.	.	.	.	.	.	.	.
8g	day	.	.	.	.	2CM	C:sus4 (C F G)	.	.	voice
4f	_	.	.	.	.	.	.	.	.	.
8r	.	8r	.	.	.	.	.	.	.	.
=85	=85	=85	=85	=85	=85	=85	=85	=85	=85	=85
16c	Can	16c	Can	.	.	4.FM	F:maj (F A C)	newline	206.598	fadeout, voice
16c	you	16c	you	.	.	.	.	.	.	.
8g b-	hold	8d	hold	.	.	.	.	.	.	.
[8g [b-	_	[8d	_	.	.	.	.	.	.	.
=85	=85	=85	=85	=85	=85	=85	=85	=85	=85	=85
8g] b-]	_	8d]	_	1r	.	8%5B-M	B-:maj (F B- D)	.	.	fadeout, voice
8gq 8b-q	_	8dq	_	.	.	.	.	.	.	.
16a cc	_	16f	_	.	.	.	.	.	.	.
16g b-	_	16d	_	.	.	.	.	.	.	.
8f a	_	8c	_	.	.	.	.	.	.	.
[8f [a	on	[8c	on	.	.	.	.	.	.	.
8f] a]	_	8c]	_	.	.	.	.	.	.	.
=86	=86	=86	=86	=86	=86	=86	=86	=86	=86	=86
8r	.	8r	.	.	.	4.CM	C:sus4 (F C G)	.	.	fadeout, voice
4r	.	4r	.	.	.	.	.	.	.	.
=86	=86	=86	=86	=86	=86	=86	=86	=86	=86	=86
2r	.	2r	.	1r	.	8%5FM	F:maj (F A C)	.	.	fadeout, voice
8r	.	8r	.	.	.	.	.	.	.	.
=87	=87	=87	=87	=87	=87	=87	=87	=87	=87	=87
16c	Can	16c	Can	.	.	4.FM	F:maj (F A C)	.	.	fadeout, voice
16c	you	16c	you	.	.	.	.	.	.	.
8f	hold	8c	hold	.	.	.	.	.	.	.
8cq	_	8Aq	_	.	.	.	.	.	.	.
8d	on	8B-	on	.	.	.	.	.	.	.
=87	=87	=87	=87	=87	=87	=87	=87	=87	=87	=87
8.c	_	8.A	_	1r	.	8%5B-M	B-:maj (F B- D)	.	.	fadeout, voice
16r	.	16r	.	.	.	.	.	.	.	.
4r	.	4r	.	.	.	.	.	.	.	.
2r	.	2r	.	.	.	.	.	.	.	.
=88	=88	=88	=88	=88	=88	=88	=88	=88	=88	=88
.	.	.	.	.	.	4.CM	C:sus4 (F C G)	.	.	fadeout, voice
=88	=88	=88	=88	=88	=88	=88	=88	=88	=88	=88
8r	.	8r	.	1r	.	8%5FM	F:maj (F A C)	.	.	fadeout, voice
16g	Mmm,	16B- e	Mmm,	.	.	.	.	.	.	.
[16a	_	[16c [f	_	.	.	.	.	.	.	.
4a_	_	4c_ f]	_	.	.	.	.	.	.	.
8a]	_	8c] f	_	.	.	.	.	.	.	.
=89	=89	=89	=89	=89	=89	=89	=89	=89	=89	=89
16f	can	16B- f	can	.	.	4.FM	F:maj (F A C)	.	.	fadeout, voice
16f	you	16B- f	you	.	.	.	.	.	.	.
8dd	hold	8f b-	hold	.	.	.	.	.	.	.
8cc	on,	8f a	on,	.	.	.	.	.	.	.
=89	=89	=89	=89	=89	=89	=89	=89	=89	=89	=89
8aq	_	8cq 8fq	_	.	.	.	.	.	.	.
8b-	ba-	8d g	ba-	1r	.	8%5B-M	B-:maj (F B- D)	.	.	fadeout, voice
[8a	-by	[8c [f	-by	.	.	.	.	.	.	.
8a]	_	8c] f]	_	.	.	.	.	.	.	.
8r	.	8r	.	.	.	.	.	.	.	.
2r	.	2r	.	.	.	.	.	.	.	.
.	.	.	.	.	.	1r;	r	.	218.105	r
r;	.	r;	.	r;	.	.	.	.	.	.
r;	.	r;	.	r;	.	1r;	r	.	221.362	r
*-	*-	*-	*-	*-	*-	*-	*-	*-	*-	*-
!!!BillboardChartDate: 1990/04/14, 1990/03/31, 1990/05/26
!!!BillboardPeak: 1, 1, 1
!!!BillboardWeeksOnChart: 25, 25, 25
!!!COC: Wilson Phillips
!!!ENC: Nathaniel Condit-Schultz
!!!EST: Awating manual error checking and editing.
!!!OTL: Hold On
!!!RDF**chordsym: original McGill chord annotation + (implied pitch class set, with bass pitch in first position)
!!!RDF**harmony: **recip + pitch class of root + harmonic quality
!!!RDF**leadinstrument: original McGill primary instrumentation annotation
!!!RDF**phrase: newline = linebreak in original McGill transcription
!!!RDF**timestamp: McGill audio timestamp in seconds
!!!RDT: 2017/01/12/
!!!SampleActualRank: 25, 43,  4
!!!SampleID#: 385, 628, 911
!!!SampleTargetRank: 23, 44,  4
